dist/svg/settings.svg

<!-- Generated by Trend Micro Style Portal -->
<svg version="1.1" xmlns="http://www.w3.org/2000/svg" width="16" height="16" viewBox="0 0 16 16">
  <title>settings</title>
  <path fill="rgb(34,34,34)" d="M16 9v-2l-2.13-0.27c-0.163-0.757-0.447-1.427-0.834-2.023l0.014 0.023 1.33-1.7-1.38-1.39-1.74 1.36c-0.573-0.376-1.242-0.664-1.96-0.823l-0.040-0.007-0.26-2.17h-2l-0.26 2.13c-0.757 0.163-1.427 0.447-2.023 0.834l0.023-0.014-1.67-1.31-1.41 1.42 1.34 1.69c-0.376 0.573-0.664 1.242-0.823 1.96l-0.007 0.040-2.17 0.25v2l2.14 0.27c0.163 0.757 0.447 1.427 0.834 2.023l-0.014-0.023-1.32 1.7 1.41 1.41 1.71-1.38c0.574 0.37 1.243 0.65 1.961 0.803l0.039 0.007 0.24 2.19h2l0.27-2.14c0.757-0.163 1.427-0.447 2.023-0.834l-0.023 0.014 1.73 1.34 1.38-1.38-1.38-1.75c0.373-0.573 0.657-1.243 0.813-1.96l0.007-0.040zM8 11c-1.657 0-3-1.343-3-3s1.343-3 3-3c1.657 0 3 1.343 3 3v0c0 1.657-1.343 3-3 3v0z"></path>
</svg>

<svg width="16" height="16" viewBox="0 0 16 16" fill="rgb(34, 34, 34)" xmlns="http://www.w3.org/2000/svg"><title>settings</title><path d="M16 9V7L13.87 6.73C13.707 5.973 13.423 5.303 13.036 4.707L13.05 4.73L14.38 3.03L13 1.64L11.26 3C10.687 2.624 10.018 2.336 9.3 2.177L9.26 2.17L9 0H7L6.74 2.13C5.983 2.293 5.313 2.577 4.717 2.964L4.74 2.95L3.07 1.64L1.66 3.06L3 4.75C2.624 5.323 2.336 5.992 2.177 6.71L2.17 6.75L0 7V9L2.14 9.27C2.303 10.027 2.587 10.697 2.974 11.293L2.96 11.27L1.64 12.97L3.05 14.38L4.76 13C5.334 13.37 6.003 13.65 6.721 13.803L6.76 13.81L7 16H9L9.27 13.86C10.027 13.697 10.697 13.413 11.293 13.026L11.27 13.04L13 14.38L14.38 13L13 11.25C13.373 10.677 13.657 10.007 13.813 9.29L13.82 9.25L16 9ZM8 11C6.343 11 5 9.657 5 8C5 6.343 6.343 5 8 5C9.657 5 11 6.343 11 8C11 9.657 9.657 11 8 11Z" fill="rgb(34, 34, 34)" fill-opacity="1.00"/></svg>
